X: 40843
T: Tramper Down
R: reel
M: 4/4
K: Amajor
|:eg|ae e/e/e fece|fbec dcBg|ae e/e/e fecA|EFGE A2:|
|:AB|cBAG FGAF|ECEd cB B/B/B|cBAG FGAF|EFGE A2:|

